X:1
T:Almondsbury, LM
T:Basil Harwood, 1908
T:Almondsbury, LM
T:Public Domain
C:Basil Harwood, 1908
Z:Public Domain
%%score ( 1 2 ) ( 3 4 )
L:1/8
M:4/4
K:E
V:1 treble 
V:2 treble 
V:3 bass 
V:4 bass 
V:1
 [EG]2 | [EA]2 [CF]2 [B,D]2 [DF]2 | (FE)(ED) [EG]2 E2 | [EA]2 [EG]2 [Cc]2 [EB]2 | %4
 [Ec]2 ([Dd][Ce]) [Dd]2 [EB]2 | [Cc]2 (DC) [CA]2 [B,F]2 | (ED)([CA][EG]) [DF]2 [DB]2 | %7
 (DC)(CB,) [B,G]2 (FA) | [B,E]2 [DF]2 E2 |] %9
V:2
 x2 | x8 | B2 A2 x E2 x | x8 | x8 | x2 B2 x4 | G2 x6 | E2 F2 x C2 x | x4 E2 |] %9
V:3
 [E,B,]2 | [C,A,]2 [A,,A,]2 [B,,F,]2 [F,G,]2 | [G,B,]2 [F,B,]2 [E,B,]2 [D,G,]2 | %3
 [C,A,]2 [B,,B,]2 [A,,E,]2 [G,,B,]2 | [F,,B,]2 [F,^A,]2 [B,,B,]2 [E,G,]2 | %5
 [A,,A,]2 ([B,,F,][C,^E,]) F,2 [D,B,]2 | [E,B,]2 [A,,C]2 [B,,F,]2 [G,,G,]2 | %7
 [C,G,]2 [D,F,]2 [E,B,]2 (A,F,) | [B,,G,]2 (F,A,) [E,G,]2 |] %9
V:4
 x2 | x8 | x8 | x8 | x8 | x4 F,2 x2 | x8 | x6 A,,2 | x2 B,,2 x2 |] %9

